Simply-Purple-Circles/scalable/apps/grip.svg

<svg xmlns="http://www.w3.org/2000/svg" width="48" height="48" viewBox="0 0 12.7 12.7"><path fill="#963996" d="M6.344.073C2.911.073.09 2.895.09 6.328s2.822 6.255 6.255 6.255c1.08 0 2.1-.28 2.99-.77L6.67 9.15h1.686V8.112a2.665 2.665 0 0 1-2.012.897 2.655 2.655 0 0 1-2.68-2.681c0-1.501 1.18-2.68 2.68-2.68a2.655 2.655 0 0 1 2.681 2.68c0 .099-.006.197-.016.293h1.876v2.528h1.033c.434-.85.681-1.808.681-2.821C12.6 2.895 9.777.073 6.344.073zm0 4.468c-.982 0-1.787.805-1.787 1.787 0 .982.805 1.787 1.787 1.787.982 0 1.787-.805 1.787-1.787 0-.982-.805-1.787-1.787-1.787zm0 .893c.499 0 .894.395.894.894a.887.887 0 0 1-.894.894.887.887 0 0 1-.893-.894c0-.499.395-.894.893-.894zm2.378 1.553v1.039h.001v1.489H7.531L9.618 11.6l2.086-2.086h-1.192V7.727h-.007v-.74H8.722z" color="#bebebe" font-family="sans-serif" font-weight="400" overflow="visible" style="font-variant-ligatures:normal;font-variant-position:normal;font-variant-caps:normal;font-variant-numeric:normal;font-variant-alternates:normal;font-feature-settings:normal;text-indent:0;text-decoration-line:none;text-decoration-style:solid;text-decoration-color:#000;text-transform:none;text-orientation:mixed;shape-padding:0;isolation:auto;mix-blend-mode:normal" white-space="normal"/></svg>

<?xml version="1.0" encoding="UTF-8" standalone="no"?>
<svg
   xmlns:dc="http://purl.org/dc/elements/1.1/"
   xmlns:cc="http://creativecommons.org/ns#"
   xmlns:rdf="http://www.w3.org/1999/02/22-rdf-syntax-ns#"
   xmlns:svg="http://www.w3.org/2000/svg"
   xmlns="http://www.w3.org/2000/svg"
   xmlns:sodipodi="http://sodipodi.sourceforge.net/DTD/sodipodi-0.dtd"
   xmlns:inkscape="http://www.inkscape.org/namespaces/inkscape"
   width="48"
   height="48"
   viewBox="0 0 12.7 12.7"
   version="1.1"
   id="svg4"
   sodipodi:docname="grip.svg"
   inkscape:version="0.92.4 (5da689c313, 2019-01-14)">
  <metadata
     id="metadata10">
    <rdf:RDF>
      <cc:Work
         rdf:about="">
        <dc:format>image/svg+xml</dc:format>
        <dc:type
           rdf:resource="http://purl.org/dc/dcmitype/StillImage" />
        <dc:title></dc:title>
      </cc:Work>
    </rdf:RDF>
  </metadata>
  <defs
     id="defs8" />
  <sodipodi:namedview
     pagecolor="#ffffff"
     bordercolor="#666666"
     borderopacity="1"
     objecttolerance="10"
     gridtolerance="10"
     guidetolerance="10"
     inkscape:pageopacity="0"
     inkscape:pageshadow="2"
     inkscape:window-width="1087"
     inkscape:window-height="480"
     id="namedview6"
     showgrid="false"
     inkscape:zoom="4.9166667"
     inkscape:cx="2.1355932"
     inkscape:cy="24"
     inkscape:window-x="0"
     inkscape:window-y="25"
     inkscape:window-maximized="0"
     inkscape:current-layer="svg4" />
  <path
     d="m 6.344,0.073 c -3.433,0 -6.254,2.822 -6.254,6.255 0,3.433 2.822,6.255 6.255,6.255 1.08,0 2.1,-0.28 2.99,-0.77 L 6.67,9.15 H 8.356 V 8.112 A 2.665,2.665 0 0 1 6.344,9.009 2.655,2.655 0 0 1 3.664,6.328 c 0,-1.501 1.18,-2.68 2.68,-2.68 a 2.655,2.655 0 0 1 2.681,2.68 c 0,0.099 -0.006,0.197 -0.016,0.293 h 1.876 v 2.528 h 1.033 C 12.352,8.299 12.599,7.341 12.599,6.328 12.6,2.895 9.777,0.073 6.344,0.073 Z m 0,4.468 c -0.982,0 -1.787,0.805 -1.787,1.787 0,0.982 0.805,1.787 1.787,1.787 0.982,0 1.787,-0.805 1.787,-1.787 0,-0.982 -0.805,-1.787 -1.787,-1.787 z m 0,0.893 c 0.499,0 0.894,0.395 0.894,0.894 A 0.887,0.887 0 0 1 6.344,7.222 0.887,0.887 0 0 1 5.451,6.328 c 0,-0.499 0.395,-0.894 0.893,-0.894 z M 8.722,6.987 V 8.026 H 8.723 V 9.515 H 7.531 L 9.618,11.6 11.704,9.514 H 10.512 V 7.727 h -0.007 v -0.74 z"
     font-weight="400"
     overflow="visible"
     style="color:#bebebe;font-weight:400;font-family:sans-serif;font-variant-ligatures:normal;font-variant-position:normal;font-variant-caps:normal;font-variant-numeric:normal;font-variant-alternates:normal;font-feature-settings:normal;text-indent:0;text-decoration:none;text-decoration-line:none;text-decoration-style:solid;text-decoration-color:#000000;text-transform:none;text-orientation:mixed;white-space:normal;shape-padding:0;overflow:visible;isolation:auto;mix-blend-mode:normal;fill:#963996"
     id="path2"
     inkscape:connector-curvature="0" />
</svg>
